Adwaita++-Dark/status/symbolic/process-error-symbolic.svg

<svg height="16" width="16" xmlns="http://www.w3.org/2000/svg">
  <path d="m15 8c0-3.87-3.13-7-7-7s-7 3.13-7 7c0 3.86 3.13 7 7 7s7-3.14 7-7zm-2-1v2h-10v-2z" fill="#3584e4"/>
</svg>

<svg xmlns="http://www.w3.org/2000/svg" width="16" height="16" version="1.1">
 <path class="warning" d="M 15,8 C 15,4.13 11.87,1 8,1 4.13,1 1,4.13 1,8 1,11.86 4.13,15 8,15 11.87,15 15,11.86 15,8 Z M 13,7 V 9 H 3 V 7 Z" style="fill:#3584e4"/>
</svg>
